X: 14791
T: Gander In The Pratie Hole, The
R: jig
M: 6/8
K: Dmajor
|:E|FAD FAF|GFG EE/F/G|FAD FAD|GED D2 E|
FAD F2 A|GFG E2 g|fed ecA|GED D2:|
|:B|Add ded|cAB cAG|Ad/c/d ded|cAB c2 B|
Add ded|cAB cde|fed ecA|GED D2:|

